X: 1493
T: Nihâvent Sazsemâîsi
C: Hasib Dede (Erzurumlu)
O: Turkey
F: http://compmusic.upf.edu/node/140
N: nihavent--sazsemaisi--senginsemai----erzurumlu_hasib_dede
N: makam= nihavent
N: form= sazsemaisi
N: usul= senginsemai = 6/4
M: 6/4
L: 1/16
K: C _B _e  
Q: 1/4=87
%%MIDI tuningsystem comma53
G3A B3c d3c B3A G4 z4  | G3D G3A B3c d3e d4 z4  | \
w:  1. HANE VE MÜLÂZİME  |   | 
d3e f3g f3e d3c d3c B4  | 
w:   | 
c3e d3c B3A G3^F G4 z4  | G3A B3c d3c B3A G4 z4  | \
w:   |  1. HANE VE MÜLÂZİME  | 
G3D G3A B3c d3e d4 z4  | 
w:   | 
d3e f3g f3e d3c d3c B4  | c3e d3c B3A G3^F G4 z4  | 
w:   |   | 
z12  | d2 c2 B2 A2 G2 A2  | B2 A2 B2 c2 d4  | \
w:  |  2. HANE  |   | 
B4 A2 A4 G2  | G4 ^F2 G4 z2  | A2 G2 A2 B2 A2 c2  | 
w:   |   |   | 
B2 A2 G2 A2 B4  | d2 c2 B2 A4 G2  | A2 G2 ^F2 G4 z2  | \
w:   |   |   | 
d2 c2 B2 A2 G2 A2  | 
w:   | 
B2 A2 B2 c2 d4  | B4 A2 A4 G2  | G4 ^F2 G4 z2  | \
w:   |   |   | 
A2 G2 A2 B2 A2 c2  | B2 A2 G2 A2 B4  | 
w:   |   | 
d2 c2 B2 A4 G2  | A2 G2 ^F2 G4 z2  | z24  | \
w:   |   |  | 
G3A B3c d3c B3A G4 z4  | 
w:  1. HANE VE MÜLÂZİME  | 
G3D G3A B3c d3e d4 z4  | d3e f3g f3e d3c d3c B4  | 
w:   |   | 
c3e d3c B3A G3^F G4 z4  | G3A B3c d3c B3A G4 z4  | \
w:   |  1. HANE VE MÜLÂZİME  | 
G3D G3A B3c d3e d4 z4  | 
w:   | 
d3e f3g f3e d3c d3c B4  | c3e d3c B3A G3^F G4 z4  | 
w:   |   | 
g4 a2a4g2 ^f4 e2d4z2  | b2a2 g2^f2 e2g2 fed2 ^c2d4z2  | \
w:  3. HANE  |   | 
d4 f2f4e2 g2f2 e2d4c2  | 
w:   | 
e2d2 c2B4A2 G4 ^F2G4z2  | g4 a2a4g2 ^f4 e2d4z2  | \
w:   |   | 
b2a2 g2^f2 e2g2 fed2 ^c2d4z2  | 
w:   | 
d4 f2f4e2 g2f2 e2d4c2  | e2d2 c2B4A2 G4 ^F2G4z2  | \
w:   |   | 
G3A B3c d3c B3A G4 z4  | 
w:  1. HANE VE MÜLÂZİME  | 
G3D G3A B3c d3e d4 z4  | d3e f3g f3e d3c d3c B4  | 
w:   |   | 
c3e d3c B3A G3^F G4 z4  | G3A B3c d3c B3A G4 z4  | \
w:   |  1. HANE VE MÜLÂZİME  | 
G3D G3A B3c d3e d4 z4  | 
w:   | 
d3e f3g f3e d3c d3c B4  | c3e d3c B3A G3^F G4 z4  | 
w:   |   | 
G2D2 G2B4A2 A2G2 ^F2G4z2  | G2^F2 G2A2 G2A2 B2A2 B2c2 d4  | 
w:  4. HANE  |   | 
e2d2 c2d4e2 d4 c2c4B2  | B4 A2A4G2 G4 ^F2G4z2  | \
w:   |   | 
G2D2 G2B4A2 A2G2 ^F2G4z2  | 
w:   | 
G2^F2 G2A2 G2A2 B2A2 B2c2 d4  | e2d2 c2d4e2 d4 c2c4B2  | \
w:   |   | 
B4 A2A4G2 G4 ^F2G4z2  | 
w:   | 
G3A B3c d3c B3A G4 z4  | G3D G3A B3c d3e d4 z4  | \
w:  1. HANE VE MÜLÂZİME  |   | 
d3e f3g f3e d3c d3c B4  | 
w:   | 
c3e d3c B3A G3^F G4 z4  | G3A B3c d3c B3A G4 z4  | \
w:   |  1. HANE VE MÜLÂZİME  | 
G3D G3A B3c d3e d4 z4  | 
w:   | 
d3e f3g f3e d3c d3c B4  | c3e d3c B3A G3^F G4 z4  | 
w:   |   | 
|


